assets/images/star-silver.svg

<svg width="33" height="32" viewBox="0 0 33 32" fill="none" xmlns="http://www.w3.org/2000/svg">
<path d="M16.2446 3.31904L16.2447 3.31937C16.2447 3.31926 16.2447 3.31915 16.2446 3.31904L16.5 3.23607L16.2446 3.31904ZM14.3387 10.7567L16.5 4.10501L18.6613 10.7567C18.965 11.6914 19.836 12.3242 20.8188 12.3242H27.8128L22.1545 16.4352C21.3594 17.0129 21.0267 18.0368 21.3304 18.9715L23.4917 25.6232L17.8334 21.5123C17.0383 20.9346 15.9617 20.9346 15.1666 21.5123L9.5083 25.6232L11.6696 18.9715C11.9733 18.0368 11.6406 17.0129 10.8455 16.4352L5.18719 12.3242H12.1812C13.164 12.3242 14.035 11.6914 14.3387 10.7567ZM8.83972 26.109C8.83987 26.1089 8.84002 26.1088 8.84018 26.1087L8.83972 26.109Z" fill="#9C9D9F" stroke="#9C9D9F" stroke-width="2.53704"/>
</svg>

<svg width="33" height="32" fill="none" xmlns="http://www.w3.org/2000/svg"><path d="m16.245 3.319.255-.083-.255.083Zm-1.906 7.438L16.5 4.105l2.161 6.652a2.268 2.268 0 0 0 2.158 1.567h6.994l-5.659 4.111a2.269 2.269 0 0 0-.824 2.537l2.162 6.651-5.659-4.11a2.268 2.268 0 0 0-2.666 0l-5.659 4.11 2.162-6.652a2.269 2.269 0 0 0-.825-2.536l-5.658-4.11h6.994c.983 0 1.854-.634 2.158-1.568Zm-5.5 15.352h.001Z" fill="#9C9D9F" stroke="#9C9D9F" stroke-width="2.537"/></svg>
